X:15746
T:Sonny's Mazurka 
M:3/4
A:Ireland
R:Mazurka
K:G
DG|B2 BA GB|d2 d2 AB|cB ce dc|Bc AB GA|
B2 BA GB|d2 d2 AB|cB cA FA|G2 G2:|
gf|e2 eg fe|d2 d2 AB|c2 ce dc|B2 B2 gf|
e2 eg fe|d2 d2 AB|cB cA FD|G2 G2:|
